X:4969
L:1/4
M:3/2
K:Amin
 A A c |"^(a)" e3 d c e | c A2 A A c | e3 e (d/c/) A | d3 A A c | e3 d c e | c A2 A A e | 
 d3 (e/d/) c G | A3 |]"^(a)" e3 e d c | c A2 ||

